docs/img/zigzag-fill-pages-desktop.svg

<svg width="1150" height="34" fill="none" xmlns="http://www.w3.org/2000/svg"><path d="M1121.3 0c-14.4 0-14.4 14-28.7 14-14.3 0-14.4-14-28.7-14-14.3 0-14.4 14-28.7 14-14.4 0-14.4-14-28.8-14S992 14 977.7 14C963.3 14 963.3 0 949 0c-14.4 0-14.4 14-28.7 14-14.3 0-14.7-14-29-14-14.4 0-14.4 14-28.7 14-14.3 0-14.5-14-28.8-14-14.4 0-14.4 14-28.7 14-14.4 0-14.4-14-28.8-14s-14.4 14-28.7 14c-14.4 0-14.4-14-28.7-14-14.3 0-14.5 14-28.9 14-14.4 0-14.4-14-28.7-14-14.4 0-14.4 14-28.7 14-14.4 0-14.4-14-28.8-14s-14.4 14-28.7 14c-14.4 0-14.4-14-28.7-14C532 0 532 14 517.7 14 503.3 14 503.3 0 489 0c-14.4 0-14.4 14-28.8 14S445.8 0 431.4 0 417 14 402.6 14 388.2 0 373.8 0 359.4 14 345 14 330.6 0 316.2 0s-14.4 14-28.8 14S273 0 258.6 0s-14.4 14-28.7 14c-14.4 0-14.4-14-28.8-14s-14.4 14-28.8 14-14.4-14-28.8-14-14.4 14-28.8 14S100.3 0 85.9 0c-14 0-14 14-28.4 14C43.1 14 43.1 0 28.8 0 14.5 0 14.4 14 0 14v20h1150V14c-14.4 0-14.4-14-28.7-14Z" fill="#fff"/></svg>

<svg width="1150" height="34" viewBox="0 0 1150 34" fill="none" xmlns="http://www.w3.org/2000/svg">
<path d="M1121.3 0C1106.9 0 1106.9 14 1092.6 14C1078.3 14 1078.2 0 1063.9 0C1049.6 0 1049.5 14 1035.2 14C1020.8 14 1020.8 0 1006.4 0C992 0 992 14 977.7 14C963.3 14 963.3 0 949 0C934.6 0 934.6 14 920.3 14C906 14 905.6 0 891.3 0C876.9 0 876.9 14 862.6 14C848.3 14 848.1 0 833.8 0C819.4 0 819.4 14 805.1 14C790.7 14 790.7 0 776.3 0C761.9 0 761.9 14 747.6 14C733.2 14 733.2 0 718.9 0C704.6 0 704.4 14 690 14C675.6 14 675.6 0 661.3 0C646.9 0 646.9 14 632.6 14C618.2 14 618.2 0 603.8 0C589.4 0 589.4 14 575.1 14C560.7 14 560.7 0 546.4 0C532 0 532 14 517.7 14C503.3 14 503.3 0 489 0C474.6 0 474.6 14 460.2 14C445.8 14 445.8 0 431.4 0C417 0 417 14 402.6 14C388.2 14 388.2 0 373.8 0C359.4 0 359.4 14 345 14C330.6 14 330.6 0 316.2 0C301.8 0 301.8 14 287.4 14C273 14 273 0 258.6 0C244.2 0 244.2 14 229.9 14C215.5 14 215.5 0 201.1 0C186.7 0 186.7 14 172.3 14C157.9 14 157.9 0 143.5 0C129.1 0 129.1 14 114.7 14C100.3 14 100.3 0 85.9 0C71.9 0 71.9 14 57.5 14C43.1 14 43.1 0 28.8 0C14.5 0 14.4 14 0 14V34H1150V14C1135.6 14 1135.6 0 1121.3 0Z" fill="white"/>
</svg>
